X:13
T:Mon me, bnis le Seigneur - C16
C:R. Jef
M:2/4
L:1/8
K:C
C2|D2 EE|G2 AA|G2 zG|cB AG|E2 D2|CD DC|E4||
E|AA AG|A3 B|cB AG|E2 DE|DC DE|^FF GE|E3||
